X:143
T:Can't Ye Dance The Polka (b)
M:C|
L:1/4
Q:1/4=3D150
K:C
G|\
CE GC|FA-Ac|BG FG|E3 G|
cc cG|BA FD/D/|GG FD|CD EF|
G3 C|F A3|G2 F2|E C3|
c3 G|BA F2|G>G FB,|D C2||
